X:1
T:The Mill, The Mill, O
M:4/4
L:1/8
K:D
 D3/2- E/2| F2 A,3/2- B,/2 A,3 D| B,3/2- A,/2B,-D E2D-E| F2 A,2G-FE-D|\
 B,3- ^C D2| D3/2- E/2| F2 A,3/2- B,/2 A,3 D| B,3/2- A,/2B,-D E2D-E|\
 F2 A,A,G-FE-D| B,3- ^C D2|| z A,|D-EF-G A2 AA|B-AG-F E2 A,A,|D-E FG A3/2- B/2A-G|\
 F3- G A2| z A,|D-E FG A2G-A|B-AG-F E2 D3/2- E/2| F2 A,2 A,2F/2-E/2 D|\
 B,3- ^C D2||
